X: 18765
T: If Ever You Were Mine
R: waltz
M: 3/4
K: Gmajor
(DE)|G4 e2|~d3 B ~B/A/G|AB G2 G2|{A}G3 D DE|
G4 ~e2|d3 d Bd|~d6|d2 e2 ~f2|
g2 g ed|g3 g ed|e2 {e}d3 B|AB G2 G/F/E|
D4 e2|d3 B B/A/G|DEG2GA|G6|1 {A}G3 D:|2 {A}G3 D||
dc|B3 d B/A/G|B/c/d- dd Bd|c2 d2 e2|d3 ABc|
B3 d B/A/G|B/c/d- dd Bd|c2 d2 e2|de fd ef|
g3 g ed|g3 g ed|~e2 d3 B|AB G2 G/F/E|
D4 e2|d3 B B/A/G|DEG2GA|G4 GA|1 G3 D:|2 {A}G4||

